tools/download-figma-icons/icons/outlined-medium/price-tag.svg

<svg width="24" height="24" viewBox="0 0 24 24" fill="none" xmlns="http://www.w3.org/2000/svg">
<path fill-rule="evenodd" clip-rule="evenodd" d="M22.4195 13.631L13.6311 22.4194C13.5246 22.5244 13.3529 22.5244 13.2456 22.4194L1.58107 10.7541C1.52932 10.7023 1.50157 10.6341 1.50157 10.5613V1.77445C1.50157 1.62445 1.62457 1.50145 1.77532 1.50145H10.5614C10.6342 1.50145 10.7024 1.5292 10.7549 1.5817L22.4195 13.2448C22.526 13.352 22.526 13.5245 22.4195 13.631ZM23.4806 12.1836L11.8168 0.521242C11.4831 0.184497 11.0368 0 10.5613 0H1.77522C0.796488 0 0 0.796488 0 1.77447V10.5613C0 11.0368 0.185247 11.4831 0.520492 11.8161L12.1843 23.4806C12.5293 23.8271 12.9838 23.9996 13.4383 23.9996C13.8928 23.9996 14.3465 23.8271 14.693 23.4806L23.4806 14.693C24.1729 14.0015 24.1729 12.8751 23.4806 12.1836ZM17.2933 11.9729C16.8621 11.9384 16.5313 12.2849 16.5193 12.7004C16.5088 13.0199 16.4571 13.3042 16.3663 13.5449C15.9801 14.5581 14.9699 15.0389 13.6574 14.8251C13.3416 14.7734 13.0289 14.6729 12.7199 14.5499L14.2071 13.0709C14.5004 12.7784 14.5019 12.3029 14.2101 12.0097C13.9169 11.7149 13.4421 11.7127 13.1481 12.0067L11.3669 13.7781C10.9544 13.4616 10.5802 13.0882 10.2562 12.6809L12.0359 10.9117C12.3299 10.6184 12.3314 10.1445 12.0389 9.84971C11.7457 9.55571 11.2702 9.55346 10.9769 9.8467L9.4657 11.3497C9.32845 11.0219 9.21446 10.6897 9.15896 10.3537C9.02321 9.51971 9.17921 8.77722 9.59995 8.26573C9.98844 7.79324 10.5742 7.53149 11.2949 7.50824C11.7104 7.49549 12.0352 7.14825 12.0224 6.7335C12.0097 6.31951 11.6677 5.95801 11.2477 6.00751C10.0987 6.04351 9.10121 6.50701 8.43972 7.31099C7.74073 8.16298 7.46998 9.32921 7.67773 10.5967C7.78423 11.2484 8.00997 11.8852 8.32422 12.4852L7.73023 13.0762C7.43548 13.3687 7.43398 13.8434 7.72723 14.1381C7.87348 14.2851 8.06622 14.3594 8.25972 14.3594C8.45097 14.3594 8.64221 14.2866 8.78921 14.1411L9.17471 13.7571C9.50695 14.1584 9.8797 14.5266 10.2854 14.8536L9.9022 15.2354C9.6082 15.5279 9.6067 16.0034 9.8992 16.2974C10.0454 16.4444 10.2389 16.5186 10.4317 16.5186C10.6222 16.5186 10.8142 16.4459 10.9612 16.3004L11.5739 15.6899C12.1612 15.9884 12.7814 16.2044 13.4174 16.3071C13.6956 16.3521 13.9679 16.3746 14.2334 16.3746C15.8751 16.3739 17.2198 15.5249 17.7696 14.0789C17.9211 13.6821 18.0043 13.2344 18.0201 12.7469C18.0328 12.3322 17.7081 11.9857 17.2933 11.9729ZM3.00393 4.50529C3.00393 3.67581 3.67667 3.00382 4.50541 3.00382C5.33415 3.00382 6.00689 3.67581 6.00689 4.50529C6.00689 5.33403 5.33415 6.00677 4.50541 6.00677C3.67667 6.00677 3.00393 5.33403 3.00393 4.50529Z" fill="black"/>
</svg>

<svg xmlns="http://www.w3.org/2000/svg" width="24" height="24" fill="none" viewBox="0 0 24 24"><path fill="currentColor" fill-rule="evenodd" d="m22.42 13.631-8.789 8.788a.275.275 0 0 1-.385 0L1.58 10.754a.27.27 0 0 1-.08-.193V1.774c0-.15.124-.273.274-.273h8.786a.27.27 0 0 1 .194.08l11.664 11.664a.273.273 0 0 1 0 .386m1.06-1.447L11.818.52A1.75 1.75 0 0 0 10.56 0H1.775C.796 0 0 .796 0 1.774v8.787c0 .476.185.922.52 1.255l11.664 11.665c.345.346.8.519 1.254.519.455 0 .909-.173 1.255-.52l8.788-8.787a1.776 1.776 0 0 0 0-2.51m-6.187-.211c-.43-.035-.762.312-.774.727q-.016.482-.153.845c-.386 1.013-1.396 1.494-2.709 1.28a4.5 4.5 0 0 1-.937-.275l1.487-1.48a.751.751 0 0 0-1.059-1.063l-1.781 1.771a6.4 6.4 0 0 1-1.11-1.097l1.779-1.77a.751.751 0 0 0-1.06-1.064l-1.51 1.503a4.5 4.5 0 0 1-.307-.996c-.136-.834.02-1.577.44-2.088.39-.473.975-.735 1.696-.758a.75.75 0 0 0 .727-.774c-.012-.414-.354-.776-.774-.726-1.15.036-2.147.499-2.808 1.303-.7.852-.97 2.018-.762 3.286.106.651.332 1.288.646 1.888l-.594.591a.75.75 0 0 0 .53 1.283.75.75 0 0 0 .53-.218l.385-.384c.332.401.705.77 1.11 1.097l-.383.381a.751.751 0 0 0 1.06 1.065l.612-.61a6.3 6.3 0 0 0 1.843.617q.418.068.816.068c1.642-.001 2.987-.85 3.537-2.296.151-.397.234-.845.25-1.332a.75.75 0 0 0-.727-.774M3.003 4.505a1.502 1.502 0 1 1 3.004 0 1.502 1.502 0 0 1-3.003 0" clip-rule="evenodd"/></svg>
